X:1
T:Title
%%score ( 1 2 3 ) { ( 4 6 ) | 5 }
L:1/8
Q:1/4=110
M:4/4
K:Ab
V:1 treble nm="Grand Piano, Staff"
V:2 treble 
V:3 treble 
V:4 bass nm="Choir Pad, Zoan, 76.76 D"
V:6 bass 
V:5 bass 
V:1
 z8 | G2 z2 z4 | [EA]2 [Fd]2- [Fd][Fc] [Fd]2 | [EB]2 [Ec]6 | [Ec]2 [EB]2- [EB][FA] [EG]2 | %5
 [Ec]2 [=DB]4 E2 | [EA]2 [EG]2 [EA]2 [EF]2 | [=DF]2 E6 | [CE]2 [DF]2- [DF][DF] [DF]2 | %9
 [DF]2 [EG]4 [EG]2 | [EG]2 [FA]2- [FA][CA] [FB]2 | [EB]2 [Ec]6 | [Fc]2 [Fd]2- [Fd][Ec] [DB]2 | %13
 [=DA]2 [EG]4 [B,G]2 | [Ec]2 [CA]4 [B,B]2- | [B,B]2 [B,E]4 [EG]2- | [EG]2 [EA]6- | [EA]2 z2 z4 |] %18
V:2
 [CA]2 [Ec]2- [Ec][DB] A2 | z D [CA]4 [DA]2 | x8 | x8 | x8 | x8 | x8 | x8 | x8 | x8 | x8 | x8 | %12
 x8 | x8 | x8 | x8 | x8 | x8 |] %18
V:3
 z4 z2 E2- | E z z2 z4 | x8 | x8 | x8 | x8 | x8 | x8 | x8 | x8 | x8 | x8 | x8 | x8 | x8 | x8 | x8 | %17
 x8 |] %18
V:4
 E,2 A,2- A,G, A,2 | B,2 A,4 F,2 | E,2 B,2- B,=A, B,2 | G,2 A,6 | z4 B,2 z2 | A,G,F,G, A,B, G,2 | %6
 C2 C2 C2 B,2 | A,[K:bass]B, G,6 | A,2 A,2- A,A, B,2 | B,2 B,4[K:treble] C2 | %10
 C2 C2- CA,[K:bass] A,2 | G,2 A,6 | =A,2 B,2- B,A, B,2 | F,2 B,4 G,2 | G,2 A,4 F,2- | %15
 F,2 G,4 B,2- | B,2[K:treble] C6- | C2 z2 z4 |] %18
V:5
 A,,2 A,,2- A,,B,, C,2 | E,2 F,4 D,2 | C,2 B,,2- B,,F, B,,2 | E,2 A,,6 | z2 .E,4 E,2 | %5
 A,,2 B,,4 C,2 | A,,2 C,2 A,,2 B,,2 | B,,2 E,6 | A,,2 D,2- D,D, B,,2 | B,,2 E,4 C,2 | %10
 C,2 F,2- F,F, D,2 | E,2 A,,6 | F,2 B,,2- B,,C, D,2 | z2 E,4 E,2 | C,2 F,4 D,2- | D,2 E,4 E,2- | %16
 E,2 A,,6- | A,,2 z2 z4 |] %18
V:6
 x8 | x8 | x8 | x8 | A,2 G,2 z =D, B,2 | x8 | x8 | x[K:bass] x7 | x8 | x6[K:treble] x2 | %10
 x6[K:bass] x2 | x8 | x8 | x8 | x8 | x8 | x2[K:treble] x6 | x8 |] %18

